src/assets/svg/icons/fa/nuevos/classic/thin/circle-h classic thin.svg

<svg xmlns="http://www.w3.org/2000/svg" viewBox="0 0 512 512"><path d="M344 128c-4.406 0-8 3.578-8 8v112h-160v-112C176 131.6 172.4 128 168 128S160 131.6 160 136v240C160 380.4 163.6 384 168 384s8-3.578 8-8v-112h160v112c0 4.422 3.594 8 8 8S352 380.4 352 376v-240C352 131.6 348.4 128 344 128zM256 0C114.6 0 0 114.6 0 256s114.6 256 256 256s256-114.6 256-256S397.4 0 256 0zM256 496c-132.3 0-240-107.7-240-240S123.7 16 256 16s240 107.7 240 240S388.3 496 256 496z"/></svg>

<svg xmlns="http://www.w3.org/2000/svg" viewBox="0 0 512 512"><!--! Font Awesome Pro 6.4.0 by @fontawesome - https://fontawesome.com License - https://fontawesome.com/license (Commercial License) Copyright 2023 Fonticons, Inc. --><path d="M256 16a240 240 0 1 1 0 480 240 240 0 1 1 0-480zm0 496A256 256 0 1 0 256 0a256 256 0 1 0 0 512zm80-376V248H176V136c0-4.4-3.6-8-8-8s-8 3.6-8 8l0 240c0 4.4 3.6 8 8 8s8-3.6 8-8l0-112H336V376c0 4.4 3.6 8 8 8s8-3.6 8-8V256 136c0-4.4-3.6-8-8-8s-8 3.6-8 8z"/></svg>
